icons/code.svg

<svg width="20" height="16" xmlns="http://www.w3.org/2000/svg"><path d="M12.7361611,0.063952038 C13.2551391,0.263360331 13.5227261,0.869148905 13.3338336,1.41701869 L8.54555162,15.3051026 C8.35665911,15.8529724 7.78281676,16.1354563 7.26383885,15.936048 C6.74486095,15.7366397 6.47727387,15.1308511 6.66616638,14.5829813 L11.4544484,0.694897379 C11.6433409,0.147027596 12.2171832,-0.135456255 12.7361611,0.063952038 Z M2.41421356,8.25614867 L5.94974747,11.9885083 C6.34027176,12.4007734 6.34027176,13.0691871 5.94974747,13.4814522 C5.55922318,13.8937173 4.9260582,13.8937173 4.53553391,13.4814522 L0.292893219,9.0026206 C-0.0976310729,8.59035554 -0.0976310729,7.9219418 0.292893219,7.50967674 L4.53553391,3.03084515 C4.9260582,2.61858008 5.55922318,2.61858008 5.94974747,3.03084515 C6.34027176,3.44311021 6.34027176,4.11152395 5.94974747,4.52378901 L2.41421356,8.25614867 Z M17.5857864,8.25614867 L14.0502525,4.52378901 C13.6597282,4.11152395 13.6597282,3.44311021 14.0502525,3.03084515 C14.4407768,2.61858008 15.0739418,2.61858008 15.4644661,3.03084515 L19.7071068,7.50967674 C20.0976311,7.9219418 20.0976311,8.59035554 19.7071068,9.0026206 L15.4644661,13.4814522 C15.0739418,13.8937173 14.4407768,13.8937173 14.0502525,13.4814522 C13.6597282,13.0691871 13.6597282,12.4007734 14.0502525,11.9885083 L17.5857864,8.25614867 Z"/></svg>

<svg width="20" height="16" xmlns="http://www.w3.org/2000/svg" fill="currentColor"><path d="M12.736.064c.52.2.787.805.598 1.353L8.546 15.305c-.19.548-.763.83-1.282.631-.52-.2-.787-.805-.598-1.353L11.454.695c.19-.548.763-.83 1.282-.631ZM2.414 8.256 5.95 11.99c.39.412.39 1.08 0 1.492a.963.963 0 0 1-1.414 0L.293 9.003a1.098 1.098 0 0 1 0-1.493l4.243-4.48a.963.963 0 0 1 1.414 0 1.1 1.1 0 0 1 0 1.494L2.414 8.256Zm15.172 0L14.05 4.524a1.098 1.098 0 0 1 0-1.493.963.963 0 0 1 1.414 0l4.243 4.479c.39.412.39 1.08 0 1.493l-4.243 4.478a.963.963 0 0 1-1.414 0 1.098 1.098 0 0 1 0-1.492l3.536-3.733Z"/></svg>
